img/dribbble.svg

<svg height="14.187" viewBox="0 0 14.187 14.187" width="14.187" xmlns="http://www.w3.org/2000/svg"><path d="m13.236 3.533a7.064 7.064 0 0 0 -2.582-2.582 6.939 6.939 0 0 0 -3.56-.951 6.939 6.939 0 0 0 -3.561.951 7.062 7.062 0 0 0 -2.582 2.582 6.938 6.938 0 0 0 -.951 3.561 6.94 6.94 0 0 0 .951 3.561 7.064 7.064 0 0 0 2.582 2.582 6.939 6.939 0 0 0 3.561.951 6.939 6.939 0 0 0 3.561-.951 7.062 7.062 0 0 0 2.581-2.582 6.94 6.94 0 0 0 .951-3.561 6.94 6.94 0 0 0 -.951-3.561zm-6.142-2.5a5.839 5.839 0 0 1 4 1.515l-.115.162a4.006 4.006 0 0 1 -.346.374 5.937 5.937 0 0 1 -.6.526 8.1 8.1 0 0 1 -.891.568 8.574 8.574 0 0 1 -1.2.559 26.341 26.341 0 0 0 -2.28-3.527 6.111 6.111 0 0 1 1.432-.176zm-4.747 2.3a5.977 5.977 0 0 1 2.16-1.717 31.8 31.8 0 0 1 2.254 3.492 21.912 21.912 0 0 1 -5.6.739 5.988 5.988 0 0 1 1.185-2.513zm-.906 5.945a5.943 5.943 0 0 1 -.406-2.185 1.505 1.505 0 0 1 .009-.193 21.6 21.6 0 0 0 6.216-.859q.3.573.49 1.025a.747.747 0 0 1 -.12.042l-.12.032-.342.12a7.1 7.1 0 0 0 -.919.443q-.568.314-1.205.748a8.252 8.252 0 0 0 -1.317 1.149 7.742 7.742 0 0 0 -1.141 1.538 6.066 6.066 0 0 1 -1.145-1.86zm5.653 3.875a5.945 5.945 0 0 1 -3.861-1.385l.139.1a4.943 4.943 0 0 1 .951-1.368 8.029 8.029 0 0 1 1.21-1.058 11.923 11.923 0 0 1 1.267-.755q.683-.355.933-.452l.4-.153.018-.009h.019a24.969 24.969 0 0 1 1.293 4.6 6.056 6.056 0 0 1 -2.369.48zm5.1-2.785a6.053 6.053 0 0 1 -1.709 1.75 26.024 26.024 0 0 0 -1.185-4.332 8.726 8.726 0 0 1 3.778.268 5.977 5.977 0 0 1 -.886 2.314zm.866-3.358q-.092-.018-.231-.042l-.337-.055q-.2-.032-.443-.06t-.522-.053q-.277-.023-.591-.037t-.636-.011q-.323 0-.679.018t-.688.065a1.094 1.094 0 0 1 -.069-.153c-.028-.071-.048-.125-.06-.162q-.176-.388-.407-.877a9.479 9.479 0 0 0 1.215-.6 9.44 9.44 0 0 0 .923-.6 7.678 7.678 0 0 0 .656-.559 5.331 5.331 0 0 0 .4-.411q.092-.116.175-.226l.009-.009a5.925 5.925 0 0 1 1.376 3.787z" fill="#919191"/></svg>

<svg xmlns="http://www.w3.org/2000/svg" width="14.187" height="14.187" viewBox="0 0 14.187 14.187">
  <path id="Path_10" data-name="Path 10" d="M13.236,3.533A7.064,7.064,0,0,0,10.654.951,6.939,6.939,0,0,0,7.094,0,6.939,6.939,0,0,0,3.533.951,7.062,7.062,0,0,0,.951,3.533,6.938,6.938,0,0,0,0,7.094a6.94,6.94,0,0,0,.951,3.561,7.064,7.064,0,0,0,2.582,2.582,6.939,6.939,0,0,0,3.561.951,6.939,6.939,0,0,0,3.561-.951,7.062,7.062,0,0,0,2.581-2.582,6.94,6.94,0,0,0,.951-3.561A6.94,6.94,0,0,0,13.236,3.533Zm-6.142-2.5a5.839,5.839,0,0,1,4,1.515l-.115.162a4.006,4.006,0,0,1-.346.374,5.937,5.937,0,0,1-.6.526,8.1,8.1,0,0,1-.891.568,8.574,8.574,0,0,1-1.2.559A26.341,26.341,0,0,0,5.662,1.21,6.111,6.111,0,0,1,7.094,1.034Zm-4.747,2.3A5.977,5.977,0,0,1,4.507,1.616,31.8,31.8,0,0,1,6.761,5.108a21.912,21.912,0,0,1-5.6.739A5.988,5.988,0,0,1,2.346,3.334ZM1.441,9.278a5.943,5.943,0,0,1-.406-2.185A1.505,1.505,0,0,1,1.044,6.9,21.6,21.6,0,0,0,7.26,6.041q.3.573.49,1.025a.747.747,0,0,1-.12.042l-.12.032-.342.12a7.1,7.1,0,0,0-.919.443q-.568.314-1.205.748A8.252,8.252,0,0,0,3.727,9.6a7.742,7.742,0,0,0-1.141,1.538A6.066,6.066,0,0,1,1.441,9.278Zm5.653,3.875a5.945,5.945,0,0,1-3.861-1.385l.139.1A4.943,4.943,0,0,1,4.323,10.5a8.029,8.029,0,0,1,1.21-1.058A11.923,11.923,0,0,1,6.8,8.687q.683-.355.933-.452l.4-.153.018-.009h.019a24.969,24.969,0,0,1,1.293,4.6A6.056,6.056,0,0,1,7.094,13.153Zm5.1-2.785a6.053,6.053,0,0,1-1.709,1.75A26.024,26.024,0,0,0,9.3,7.786a8.726,8.726,0,0,1,3.778.268A5.977,5.977,0,0,1,12.192,10.368ZM13.06,7.01q-.092-.018-.231-.042l-.337-.055q-.2-.032-.443-.06T11.527,6.8q-.277-.023-.591-.037T10.3,6.752q-.323,0-.679.018t-.688.065a1.094,1.094,0,0,1-.069-.153c-.028-.071-.048-.125-.06-.162q-.176-.388-.407-.877a9.479,9.479,0,0,0,1.215-.6,9.44,9.44,0,0,0,.923-.6,7.678,7.678,0,0,0,.656-.559,5.331,5.331,0,0,0,.4-.411q.092-.116.175-.226l.009-.009a5.925,5.925,0,0,1,1.376,3.787Z" fill="#919191"/>
</svg>
